svgs/regular/laptop-mobile.svg

<svg xmlns="http://www.w3.org/2000/svg" viewBox="0 0 640 512"><!--! Font Awesome Pro 6.6.0 by @fontawesome - https://fontawesome.com License - https://fontawesome.com/license (Commercial License) Copyright 2024 Fonticons, Inc. --><path d="M128 48l320 0c8.8 0 16 7.2 16 16l0 32 48 0 0-32c0-35.3-28.7-64-64-64L128 0C92.7 0 64 28.7 64 64l0 256-48 0c-8.8 0-16 7.2-16 16c0 26.5 21.5 48 48 48l304 0 0-64-240 0 0-256c0-8.8 7.2-16 16-16zM384 464c0 26.5 21.5 48 48 48l160 0c26.5 0 48-21.5 48-48l0-288c0-26.5-21.5-48-48-48l-160 0c-26.5 0-48 21.5-48 48l0 288zm208 0l-160 0 0-288 160 0 0 288z"/></svg>

<svg xmlns="http://www.w3.org/2000/svg" viewBox="0 0 640 512"><!--! Font Awesome Pro 6.4.0 by @fontawesome - https://fontawesome.com License - https://fontawesome.com/license (Commercial License) Copyright 2023 Fonticons, Inc. --><path d="M128 48H448c8.8 0 16 7.2 16 16V96h48V64c0-35.3-28.7-64-64-64H128C92.7 0 64 28.7 64 64V320H16c-8.8 0-16 7.2-16 16c0 26.5 21.5 48 48 48H352V320H112V64c0-8.8 7.2-16 16-16zM384 176V464c0 26.5 21.5 48 48 48H592c26.5 0 48-21.5 48-48V176c0-26.5-21.5-48-48-48H432c-26.5 0-48 21.5-48 48zm48 0H592V464H432V176z"/></svg>
